X: 1
T: The Burnt Leg
R: reel
O: Skye, Scotland
S: arr. T. Traub 5-15-2015
B: Keith Norman MacDonald "The Skye collection of the best reels & strathspeys extant" 1887
M: C
L: 1/8
K: Edor
|: F |\
"Em"(E<e) e2 "D"f<e dB | "D"defa efd<B |\
"Em"(B<e) e2 "D"f<edB | "Bm"dBAF "Em"(.E<.E .E) :|
|: A |\
"Em"GFFE "D"DEFA | "G"B<BdB "D"AB d<e |\
"D"fedA DEFA | "Bm"BdAF "Em"(.E<.E .E) :|
